Adwaita++/devices/16/multimedia-player-ipod-mini-silver.svg

<svg fill="none" height="16" viewBox="0 0 16 16" width="16" xmlns="http://www.w3.org/2000/svg">
  <path clip-rule="evenodd" d="m3.90909 1c-.50208 0-.90909.44772-.90909 1v12c0 .5523.40701 1 .90909 1h8.18181c.5021 0 .9091-.4477.9091-1v-12c0-.55228-.407-1-.9091-1zm4.09091 11.5c.55228 0 1-.4477 1-1s-.44772-1-1-1-1 .4477-1 1 .44772 1 1 1zm0 1.5c1.38071 0 2.5-1.1193 2.5-2.5s-1.11929-2.5-2.5-2.5-2.5 1.1193-2.5 2.5 1.11929 2.5 2.5 2.5zm-2.5-11.5c-.27614 0-.5.22386-.5.5v4c0 .27614.22386.5.5.5h5c.2761 0 .5-.22386.5-.5v-4c0-.27614-.2239-.5-.5-.5z" fill="#9a9996" fill-rule="evenodd"/>
</svg>

<svg xmlns="http://www.w3.org/2000/svg" fill="none" width="16" height="16" version="1.1" viewBox="0 0 16 16">
 <path style="fill:#9a9996" fill-rule="evenodd" d="M3.90909 1C3.40701 1 3 1.44772 3 2V14C3 14.5523 3.40701 15 3.90909 15H12.0909C12.593 15 13 14.5523 13 14V2C13 1.44772 12.593 1 12.0909 1H3.90909ZM8 12.5C8.55228 12.5 9 12.0523 9 11.5C9 10.9477 8.55228 10.5 8 10.5C7.44772 10.5 7 10.9477 7 11.5C7 12.0523 7.44772 12.5 8 12.5ZM8 14C9.38071 14 10.5 12.8807 10.5 11.5C10.5 10.1193 9.38071 9 8 9C6.61929 9 5.5 10.1193 5.5 11.5C5.5 12.8807 6.61929 14 8 14ZM5.5 2.5C5.22386 2.5 5 2.72386 5 3V7C5 7.27614 5.22386 7.5 5.5 7.5H10.5C10.7761 7.5 11 7.27614 11 7V3C11 2.72386 10.7761 2.5 10.5 2.5H5.5Z" clip-rule="evenodd"/>
</svg>
